src/assets/bold/lm-single-page-bold.svg

<svg width="24" height="24" viewBox="0 0 24 24" fill="none" xmlns="http://www.w3.org/2000/svg" fill="currentColor">
<path fill-rule="evenodd" clip-rule="evenodd" d="M20.25 4.5C20.25 3.25736 19.2426 2.25 18 2.25H6C4.75736 2.25 3.75 3.25736 3.75 4.5V19.5C3.75 20.7426 4.75736 21.75 6 21.75H18C19.2426 21.75 20.25 20.7426 20.25 19.5V4.5ZM18 3.75C18.4142 3.75 18.75 4.08579 18.75 4.5V19.5C18.75 19.9142 18.4142 20.25 18 20.25H6C5.58579 20.25 5.25 19.9142 5.25 19.5V4.5C5.25 4.08579 5.58579 3.75 6 3.75H18Z" fill="black"/>
<path d="M8.60577 6.20673C8.20218 6.20673 7.875 6.53391 7.875 6.9375C7.875 7.34109 8.20218 7.66827 8.60577 7.66827H15.3942C15.7978 7.66827 16.125 7.34109 16.125 6.9375C16.125 6.53391 15.7978 6.20673 15.3942 6.20673H8.60577Z" fill="black"/>
<path d="M8.60577 10.2692C8.20218 10.2692 7.875 10.5964 7.875 11C7.875 11.4036 8.20218 11.7308 8.60577 11.7308H15.3942C15.7978 11.7308 16.125 11.4036 16.125 11C16.125 10.5964 15.7978 10.2692 15.3942 10.2692H8.60577Z" fill="black"/>
<path d="M8.60577 14.3175C8.20218 14.3175 7.875 14.6447 7.875 15.0483C7.875 15.4519 8.20218 15.779 8.60577 15.779H13.5176C13.9212 15.779 14.2484 15.4519 14.2484 15.0483C14.2484 14.6447 13.9212 14.3175 13.5176 14.3175H8.60577Z" fill="black"/>
</svg>

<svg xmlns="http://www.w3.org/2000/svg" width="24" height="24" fill="currentColor" viewBox="0 0 24 24">
  <path fill-rule="evenodd" d="M20.25 4.5A2.25 2.25 0 0 0 18 2.25H6A2.25 2.25 0 0 0 3.75 4.5v15A2.25 2.25 0 0 0 6 21.75h12a2.25 2.25 0 0 0 2.25-2.25v-15ZM18 3.75a.75.75 0 0 1 .75.75v15a.75.75 0 0 1-.75.75H6a.75.75 0 0 1-.75-.75v-15A.75.75 0 0 1 6 3.75h12Z" clip-rule="evenodd"/>
  <path d="M8.606 6.207a.73.73 0 0 0 0 1.461h6.788a.73.73 0 1 0 0-1.461H8.606Zm0 4.063a.73.73 0 0 0 0 1.46h6.788a.73.73 0 0 0 0-1.46H8.606Zm0 4.048a.73.73 0 0 0 0 1.461h4.912a.73.73 0 1 0 0-1.461H8.606Z"/>
</svg>
